X:68
T:Lord Cornwallis Jigg. LIT.068
M:6/8
Q:3/8=115
L:1/8
B:Wm. Litten MS, 1802
Z:Village Music Project 2017 Anne Wride
K:D
A | Add dcB | ABA AFA | Add d2e | fdB B2A |
Add dcB ABA AFA | d/e/fd e/f/ge | fdd d2 :|
|: f/g/ | afd dcd | BGG G2 g/a/ | bge ede | cAA A2A |
Add dcB | ABA AFA | dfd ege | fdd d2 :|

